src/icons/linkedin.svg

<svg width="30" height="30" viewBox="0 0 30 30" fill="none" xmlns="http://www.w3.org/2000/svg">
<path d="M18.2953 11.2056C17.6597 11.2056 17.1891 11.3659 16.8206 11.5684C16.7616 11.3584 16.5675 11.2046 16.3387 11.2506H13.5412C13.2647 11.2046 13.0406 11.4287 13.1259 11.7193V22.0318C13.0406 22.2943 13.2647 22.5193 13.5412 22.5006H16.3387C16.6153 22.5193 16.8394 22.2943 16.8394 22.0178L16.8384 15.7853C16.8375 15.7824 16.8272 15.4843 17.0156 15.279C17.1666 15.1159 17.4262 15.0324 17.7853 15.0324C18.3834 15.0324 18.6497 15.2771 18.7491 15.8246V22.0178C18.6506 22.2943 18.8747 22.5193 19.1512 22.5006H22.0997C22.3762 22.5193 22.6003 22.2943 22.5009 22.0178V15.6165C22.5994 12.3615 20.2809 11.2056 18.2953 11.2056ZM21.5981 21.5631H19.6519V15.8246C19.6519 14.7174 18.9366 14.0312 17.7862 14.0312C17.1356 14.0312 16.6294 14.2224 16.2806 14.5993C15.7959 15.1243 15.8334 15.7899 15.9375 15.9381V21.5631H14.0419V12.2068H15.8381V12.5218C15.8374 12.6157 15.8631 12.7078 15.9124 12.7877C15.9617 12.8675 16.0325 12.9318 16.1167 12.9733C16.2009 13.0147 16.2951 13.0315 16.3884 13.0218C16.4818 13.0121 16.5705 12.9762 16.6444 12.9184L16.7756 12.8171C17.1553 12.5181 17.5481 12.2078 18.2962 12.2078C19.0706 12.2078 21.5991 12.4543 21.5991 15.6174V21.5631H21.5981Z" fill="rgba(93, 93, 97, 1)"/>
<path d="M10.3125 6.53101C9.26061 6.53101 8.40561 7.38601 8.40561 8.43788C8.40561 9.48976 9.26061 10.3448 10.3125 10.3448C11.3644 10.3448 12.2194 9.48976 12.2194 8.43788C12.2194 7.38601 11.3644 6.53101 10.3125 6.53101ZM10.3125 9.34351C9.81373 9.34351 9.40686 8.93663 9.40686 8.43788C9.40686 7.93913 9.81373 7.53226 10.3125 7.53226C10.8112 7.53226 11.2181 7.93913 11.2181 8.43788C11.2181 8.93663 10.8112 9.34351 10.3125 9.34351Z" fill="rgba(93, 93, 97, 1)"/>
<path d="M11.6512 11.2041H8.86873C8.59216 11.2041 8.3681 11.4282 8.43748 11.7188V22.0313C8.3681 22.2938 8.59216 22.5188 8.86873 22.5H11.6512C11.9278 22.5188 12.1518 22.2938 12.1518 22.0172V11.7047C12.1518 11.572 12.0991 11.4446 12.0052 11.3507C11.9113 11.2568 11.784 11.2041 11.6512 11.2041ZM11.25 21.5625H9.36935V12.2063H11.25V21.5625Z" fill="rgba(93, 93, 97, 1)"/>
<path d="M15 -0.0314941C6.71061 -0.0314941 -0.0318909 6.71101 -0.0318909 15.0004C-0.0318909 23.2898 6.71061 30.0323 15 30.0323C23.2894 30.0323 30.0319 23.2898 30.0319 15.0004C30.0319 6.71101 23.2894 -0.0314941 15 -0.0314941ZM15 29.031C7.26373 29.031 0.969359 22.7366 0.969359 15.0004C0.969359 7.26413 7.26373 0.969756 15 0.969756C22.7362 0.969756 29.0306 7.26413 29.0306 15.0004C29.0306 22.7366 22.7362 29.031 15 29.031Z" fill="rgba(93, 93, 97, 1)"/>
</svg>

<svg width="30" height="30" fill="none" xmlns="http://www.w3.org/2000/svg"><path d="M18.295 11.206a2.97 2.97 0 0 0-1.474.362c-.06-.21-.254-.363-.482-.317H13.54c-.276-.046-.5.178-.415.468v10.313c-.085.262.139.487.415.469h2.798c.276.018.5-.207.5-.483v-6.233c-.002-.003-.012-.3.177-.506.15-.163.41-.247.77-.247.597 0 .864.245.963.793v6.193c-.098.276.126.501.402.483H22.1c.276.018.5-.207.4-.483v-6.402c.1-3.255-2.22-4.41-4.205-4.41Zm3.303 10.357h-1.946v-5.738c0-1.108-.715-1.794-1.866-1.794-.65 0-1.157.191-1.505.568-.485.525-.448 1.19-.343 1.34v5.624h-1.896v-9.356h1.796v.315a.5.5 0 0 0 .806.396l.132-.1c.38-.3.772-.61 1.52-.61.775 0 3.303.246 3.303 3.41v5.945ZM10.313 6.531a1.908 1.908 0 0 0-1.907 1.907c0 1.052.855 1.907 1.906 1.907a1.909 1.909 0 0 0 1.907-1.907 1.908 1.908 0 0 0-1.906-1.907Zm0 2.813a.907.907 0 0 1-.906-.906c0-.499.407-.906.905-.906.5 0 .906.407.906.906a.907.907 0 0 1-.905.906ZM11.651 11.204H8.87c-.277 0-.5.224-.432.515V22.03c-.069.263.155.488.432.469h2.782c.277.019.5-.206.5-.483V11.705a.5.5 0 0 0-.5-.5Zm-.401 10.358H9.37v-9.356h1.88v9.357Z" fill="rgba(93, 93, 97, 1)"/><path d="M15-.031C6.71-.031-.032 6.71-.032 15c0 8.29 6.743 15.032 15.032 15.032 8.29 0 15.032-6.742 15.032-15.032C30.032 6.711 23.289-.03 15-.03Zm0 29.062c-7.736 0-14.03-6.294-14.03-14.03C.97 7.263 7.263.97 15 .97S29.03 7.264 29.03 15c0 7.737-6.294 14.031-14.03 14.031Z" fill="rgba(93, 93, 97, 1)"/></svg>
